dist/img/interships/internships_s3_icon_3.svg

<svg width="76" height="75" viewBox="0 0 76 75" fill="none" xmlns="http://www.w3.org/2000/svg"><g clip-path="url(#clip0_2872_2294)" fill="#08090A"><path d="M43.64 27.69c2.23-1.71 3.72-4.41 3.72-7.48 0-5.15-4.21-9.31-9.42-9.31s-9.42 4.17-9.42 9.31c0 3.06 1.49 5.76 3.72 7.48-4.96 2.21-8.43 7.11-8.43 12.87v12.5c0 .86.74 1.59 1.61 1.59h4.71V73.4c0 .86.74 1.59 1.61 1.59.87 0 1.61-.74 1.61-1.59V48.28c0-.86-.74-1.59-1.61-1.59-.87 0-1.61.74-1.61 1.59v3.19h-3.1V40.44c0-6.01 4.96-10.91 11.03-10.91 6.08 0 11.03 4.9 11.03 10.91v11.03h-3.1V48.4c0-.86-.74-1.59-1.61-1.59-.87 0-1.61.73-1.61 1.59v25c0 .86.74 1.59 1.61 1.59.87 0 1.61-.74 1.61-1.59V54.53h4.71c.87 0 1.61-.73 1.61-1.59v-12.5c-.12-5.64-3.59-10.66-8.67-12.75zm-12.02-7.47c0-3.43 2.85-6.25 6.32-6.25s6.32 2.82 6.32 6.25-2.85 6.25-6.32 6.25-6.32-2.82-6.32-6.25z"/><path d="M37.94 59.19c-.87 0-1.61.74-1.61 1.59v12.5c0 .86.74 1.59 1.61 1.59.87 0 1.61-.73 1.61-1.59v-12.5c0-.86-.74-1.59-1.61-1.59zM20.58 18.63c5.21 0 9.42-4.17 9.42-9.31C30 4.17 25.79.01 20.58.01s-9.42 4.17-9.42 9.31c-.12 5.14 4.22 9.31 9.42 9.31zm0-15.57c3.47 0 6.32 2.82 6.32 6.25s-2.85 6.25-6.32 6.25-6.32-2.82-6.32-6.25 2.85-6.25 6.32-6.25zm34.71 15.57c5.21 0 9.42-4.17 9.42-9.31 0-5.15-4.21-9.31-9.42-9.31s-9.42 4.17-9.42 9.31c0 5.14 4.22 9.31 9.42 9.31zm0-15.57c3.47 0 6.32 2.82 6.32 6.25s-2.85 6.25-6.32 6.25-6.32-2.82-6.32-6.25 2.85-6.25 6.32-6.25zM18.23 49.88c-.87 0-1.61.74-1.61 1.59v21.81c0 .86.74 1.59 1.61 1.59.87 0 1.61-.73 1.61-1.59V51.47c-.12-.86-.74-1.59-1.61-1.59zm-5.58 10.9c-.87 0-1.61.74-1.61 1.59v10.91c0 .86.74 1.59 1.61 1.59.87 0 1.61-.73 1.61-1.59v-10.9c0-.86-.74-1.6-1.61-1.6z"/><path d="M12.65 18.38c-4.71 0-8.43 3.8-8.43 8.46 0 2.57 1.24 4.9 3.1 6.49C3.11 35.29.13 39.7.13 44.61v10.91c0 .86.74 1.59 1.61 1.59h3.97v16.18c0 .86.74 1.59 1.61 1.59.87 0 1.61-.73 1.61-1.59V51.47c0-.86-.74-1.59-1.61-1.59-.87 0-1.61.74-1.61 1.59v2.45H3.35v-9.31c0-5.15 4.22-9.31 9.42-9.31 4.71 0 8.55-3.8 8.55-8.33-.12-4.79-3.96-8.59-8.67-8.59zm0 13.73c-2.98 0-5.33-2.33-5.33-5.27 0-2.94 2.36-5.27 5.33-5.27s5.33 2.33 5.33 5.27c0 2.94-2.36 5.27-5.33 5.27zm55.91 1.22c1.86-1.59 3.1-3.92 3.1-6.5 0-4.66-3.84-8.33-8.43-8.33-4.71 0-8.43 3.8-8.43 8.33 0 4.66 3.84 8.33 8.43 8.33 5.21 0 9.42 4.17 9.42 9.31v9.44h-2.36v-2.45c0-.86-.74-1.59-1.61-1.59-.87 0-1.61.74-1.61 1.59v21.81c0 .86.74 1.59 1.61 1.59.87 0 1.61-.73 1.61-1.59V57.1h3.97c.87 0 1.61-.73 1.61-1.59v-10.9c0-5.03-2.97-9.32-7.31-11.28zM57.9 26.84c0-2.94 2.35-5.27 5.33-5.27s5.33 2.33 5.33 5.27c0 2.94-2.36 5.27-5.33 5.27s-5.33-2.33-5.33-5.27zm-.25 23.04c-.87 0-1.61.74-1.61 1.59v21.81c0 .86.74 1.59 1.61 1.59.87 0 1.61-.73 1.61-1.59V51.47c0-.86-.74-1.59-1.61-1.59z"/><path d="M63.23 60.78c-.87 0-1.61.74-1.61 1.59v10.91c0 .86.74 1.59 1.61 1.59.87 0 1.61-.73 1.61-1.59v-10.9c0-.86-.74-1.6-1.61-1.6z"/></g><defs><clipPath id="clip0_2872_2294"><path fill="#fff" transform="translate(.13)" d="M0 0h75.74v75H0z"/></clipPath></defs></svg>

<svg width="76" height="75" viewBox="0 0 76 75" fill="none" xmlns="http://www.w3.org/2000/svg">
<g clip-path="url(#clip0_2872_2294)">
<path d="M43.64 27.69C45.87 25.98 47.36 23.28 47.36 20.21C47.36 15.06 43.15 10.9 37.94 10.9C32.73 10.9 28.52 15.07 28.52 20.21C28.52 23.27 30.01 25.97 32.24 27.69C27.28 29.9 23.81 34.8 23.81 40.56V53.06C23.81 53.92 24.55 54.65 25.42 54.65H30.13V73.4C30.13 74.26 30.87 74.99 31.74 74.99C32.61 74.99 33.35 74.25 33.35 73.4V48.28C33.35 47.42 32.61 46.69 31.74 46.69C30.87 46.69 30.13 47.43 30.13 48.28V51.47H27.03V40.44C27.03 34.43 31.99 29.53 38.06 29.53C44.14 29.53 49.09 34.43 49.09 40.44V51.47H45.99V48.4C45.99 47.54 45.25 46.81 44.38 46.81C43.51 46.81 42.77 47.54 42.77 48.4V73.4C42.77 74.26 43.51 74.99 44.38 74.99C45.25 74.99 45.99 74.25 45.99 73.4V54.53H50.7C51.57 54.53 52.31 53.8 52.31 52.94V40.44C52.19 34.8 48.72 29.78 43.64 27.69ZM31.62 20.22C31.62 16.79 34.47 13.97 37.94 13.97C41.41 13.97 44.26 16.79 44.26 20.22C44.26 23.65 41.41 26.47 37.94 26.47C34.47 26.47 31.62 23.65 31.62 20.22Z" fill="#08090A"/>
<path d="M37.94 59.19C37.07 59.19 36.33 59.93 36.33 60.78V73.28C36.33 74.14 37.07 74.87 37.94 74.87C38.81 74.87 39.55 74.14 39.55 73.28V60.78C39.55 59.92 38.81 59.19 37.94 59.19Z" fill="#08090A"/>
<path d="M20.58 18.63C25.79 18.63 30 14.46 30 9.32001C30 4.17001 25.79 0.0100098 20.58 0.0100098C15.37 0.0100098 11.16 4.18001 11.16 9.32001C11.04 14.46 15.38 18.63 20.58 18.63ZM20.58 3.06001C24.05 3.06001 26.9 5.88001 26.9 9.31001C26.9 12.74 24.05 15.56 20.58 15.56C17.11 15.56 14.26 12.74 14.26 9.31001C14.26 5.88001 17.11 3.06001 20.58 3.06001Z" fill="#08090A"/>
<path d="M55.29 18.63C60.5 18.63 64.71 14.46 64.71 9.32001C64.71 4.17001 60.5 0.0100098 55.29 0.0100098C50.08 0.0100098 45.87 4.18001 45.87 9.32001C45.87 14.46 50.09 18.63 55.29 18.63ZM55.29 3.06001C58.76 3.06001 61.61 5.88001 61.61 9.31001C61.61 12.74 58.76 15.56 55.29 15.56C51.82 15.56 48.97 12.74 48.97 9.31001C48.97 5.88001 51.82 3.06001 55.29 3.06001Z" fill="#08090A"/>
<path d="M18.23 49.88C17.36 49.88 16.62 50.62 16.62 51.47V73.28C16.62 74.14 17.36 74.87 18.23 74.87C19.1 74.87 19.84 74.14 19.84 73.28V51.47C19.72 50.61 19.1 49.88 18.23 49.88Z" fill="#08090A"/>
<path d="M12.65 60.78C11.78 60.78 11.04 61.52 11.04 62.37V73.28C11.04 74.14 11.78 74.87 12.65 74.87C13.52 74.87 14.26 74.14 14.26 73.28V62.38C14.26 61.52 13.52 60.78 12.65 60.78Z" fill="#08090A"/>
<path d="M12.65 18.38C7.94001 18.38 4.22001 22.18 4.22001 26.84C4.22001 29.41 5.46 31.74 7.32 33.33C3.11 35.29 0.130005 39.7 0.130005 44.61V55.52C0.130005 56.38 0.870005 57.11 1.74 57.11H5.71V73.29C5.71 74.15 6.45001 74.88 7.32 74.88C8.19001 74.88 8.93001 74.15 8.93001 73.29V51.47C8.93001 50.61 8.19001 49.88 7.32 49.88C6.45001 49.88 5.71 50.62 5.71 51.47V53.92H3.35V44.61C3.35 39.46 7.57001 35.3 12.77 35.3C17.48 35.3 21.32 31.5 21.32 26.97C21.2 22.18 17.36 18.38 12.65 18.38ZM12.65 32.11C9.67001 32.11 7.32 29.78 7.32 26.84C7.32 23.9 9.68001 21.57 12.65 21.57C15.62 21.57 17.98 23.9 17.98 26.84C17.98 29.78 15.62 32.11 12.65 32.11Z" fill="#08090A"/>
<path d="M68.56 33.33C70.42 31.74 71.66 29.41 71.66 26.83C71.66 22.17 67.82 18.5 63.23 18.5C58.52 18.5 54.8 22.3 54.8 26.83C54.8 31.49 58.64 35.16 63.23 35.16C68.44 35.16 72.65 39.33 72.65 44.47V53.91H70.29V51.46C70.29 50.6 69.55 49.87 68.68 49.87C67.81 49.87 67.07 50.61 67.07 51.46V73.27C67.07 74.13 67.81 74.86 68.68 74.86C69.55 74.86 70.29 74.13 70.29 73.27V57.1H74.26C75.13 57.1 75.87 56.37 75.87 55.51V44.61C75.87 39.58 72.9 35.29 68.56 33.33ZM57.9 26.84C57.9 23.9 60.25 21.57 63.23 21.57C66.21 21.57 68.56 23.9 68.56 26.84C68.56 29.78 66.2 32.11 63.23 32.11C60.26 32.11 57.9 29.78 57.9 26.84Z" fill="#08090A"/>
<path d="M57.65 49.88C56.78 49.88 56.04 50.62 56.04 51.47V73.28C56.04 74.14 56.78 74.87 57.65 74.87C58.52 74.87 59.26 74.14 59.26 73.28V51.47C59.26 50.61 58.52 49.88 57.65 49.88Z" fill="#08090A"/>
<path d="M63.23 60.78C62.36 60.78 61.62 61.52 61.62 62.37V73.28C61.62 74.14 62.36 74.87 63.23 74.87C64.1 74.87 64.84 74.14 64.84 73.28V62.38C64.84 61.52 64.1 60.78 63.23 60.78Z" fill="#08090A"/>
</g>
<defs>
<clipPath id="clip0_2872_2294">
<rect width="75.74" height="75" fill="white" transform="translate(0.130005)"/>
</clipPath>
</defs>
</svg>
